client/src/assets/buttons/check-box-check.svg

<svg width="34" height="34" viewBox="0 0 34 34" fill="none" xmlns="http://www.w3.org/2000/svg">
<path d="M34 17C34 26.3888 26.3888 34 17 34C7.61116 34 0 26.3888 0 17C0 7.61116 7.61116 0 17 0C26.3888 0 34 7.61116 34 17Z" fill="#7349D6"/>
<path d="M7.17174 17.0614C6.52461 16.4143 6.52461 15.365 7.17174 14.7179C7.81888 14.0708 8.86809 14.0708 9.51523 14.7179L17.7174 22.9201C18.3646 23.5672 18.3646 24.6164 17.7174 25.2636C17.0703 25.9107 16.0211 25.9107 15.3739 25.2636L7.17174 17.0614Z" fill="white"/>
<path d="M25.9196 12.3744C26.5667 11.7273 27.616 11.7273 28.2631 12.3744C28.9102 13.0216 28.9102 14.0708 28.2631 14.7179L17.7174 25.2636C17.0703 25.9107 16.0211 25.9107 15.3739 25.2636C14.7268 24.6164 14.7268 23.5672 15.3739 22.9201L25.9196 12.3744Z" fill="white"/>
</svg>

<svg xmlns="http://www.w3.org/2000/svg" width="34" height="34" fill="none"><path fill="#7349D6" d="M34 17c0 9.3888-7.6112 17-17 17S0 26.3888 0 17 7.6112 0 17 0s17 7.6112 17 17Z"/><path fill="#fff" d="M7.1717 17.0614c-.647-.6471-.647-1.6964 0-2.3435.6472-.6471 1.6964-.6471 2.3435 0l8.2022 8.2022c.6472.6471.6472 1.6963 0 2.3435-.6471.6471-1.6963.6471-2.3435 0l-8.2022-8.2022Z"/><path fill="#fff" d="M25.9196 12.3744c.6471-.6471 1.6964-.6471 2.3435 0 .6471.6472.6471 1.6964 0 2.3435L17.7174 25.2636c-.6471.6471-1.6963.6471-2.3435 0-.6471-.6472-.6471-1.6964 0-2.3435l10.5457-10.5457Z"/></svg>
